X:1
T:Andante in G
T:Andante in G
T:Op.27
T:Ferdinando Carulli (1770-1841)
C:Ferdinando Carulli (1770-1841)
%%score { 1 | 2 } { 3 | 4 }
L:1/8
M:12/8
K:G
V:1 treble-8 nm="Guitar 1" snm="Gtr.1"
V:2 tab stafflines=6 strings=E2,A2,D3,G3,B3,E4 nostems 
V:3 treble-8 nm="Guitar 2" snm="Gtr.2"
V:4 tab stafflines=6 strings=E2,A2,D3,G3,B3,E4 nostems 
V:1
 BGd cAe dgf gfe | [Bd]3 [Ac]3 [GB]3 z2 z | A^GB AcB ce^d ecA | Bd^c d=cB A3 z2 z | %4
 BGd cAe dgf gfe | [Bd]3 [Ac]3 [GB]3 z2 z | A^GB cde dgd cBA | Ggd BdB G3 z2 z | %8
 dcB BA^G G2 z z ed | ced Bdc A2 z z2 z | cBA AGF F2 z z dc | Bdc AcB G2 z z2 z | %12
 e3 z2 z z AB cde | d3 z2 z z GA Bcd | efg ecA Ggd cBA | Ggd BdB G3 z2 z |] %16
V:2
 !2!B, !3!G, !2!D !2!C !3!A, !1!E !2!D !1!G !1!F !1!G !1!F !1!E | %1
 [!3!B,!2!D]3 [!3!A,!2!C]3 [!3!G,!2!B,]3 x2 x | %2
 !3!A, !3!^G, !2!B, !3!A, !2!C !2!B, !2!C !1!E !2!^D !1!E !2!C !3!A, | %3
 !2!B, !2!D !2!^C !2!D !2!=C !2!B, !3!A,3 x2 x | %4
 !2!B, !3!G, !2!D !2!C !3!A, !1!E !2!D !1!G !1!F !1!G !1!F !1!E | %5
 [!3!B,!2!D]3 [!3!A,!2!C]3 [!3!G,!2!B,]3 x2 x | %6
 !3!A, !3!^G, !2!B, !2!C !2!D !1!E !2!D !1!G !2!D !2!C !2!B, !3!A, | %7
 !3!G, !1!G !2!D !2!B, !2!D !2!B, !3!G,3 x2 x | %8
 !2!D !2!C !2!B, !2!B, !3!A, !3!^G, !3!G,2 x x !1!E !2!D | %9
 !2!C !1!E !2!D !2!B, !2!D !2!C !3!A,2 x x2 x | %10
 !2!C !2!B, !3!A, !3!A, !3!G, !4!F, !4!F,2 x x !2!D !2!C | %11
 !2!B, !2!D !2!C !3!A, !2!C !2!B, !3!G,2 x x2 x | !1!E3 x2 x x !3!A, !2!B, !2!C !2!D !1!E | %13
 !2!D3 x2 x x !3!G, !3!A, !2!B, !2!C !2!D | %14
 !1!E !1!F !1!G !1!E !2!C !3!A, !3!G, !1!G !2!D !2!C !2!B, !3!A, | %15
 !3!G, !1!G !2!D !2!B, !2!D !2!B, !3!G,3 x2 x |] %16
V:3
 G,2 B A,2 c B,2 d edc | [DB]3 [^DF]3 [EG]3 G,A,B, | [CE]2 z [CE]2 z [CE]2 z [CE]2 [^CE] | %3
 [EG]B^A B=AG FED CB,A, | G,2 B A,2 c B,2 d [Ce]dc | [DB]3 [^DF]3 [EG]3 G,A,B, | %6
 [CE]2 z [CEA]2 z [DGB]2 z [DA]GF | [G,G]3 [G,B,DG]3 [G,B,DG]3 z2 z | [E^GB]3 z2 z z EF GAB | %9
 [A,A]2 z [E,^G]2 z A,A=G FGE | [DFA]2 z z2 z z DE FGA | G2 z [DF]3 E,GA Bcd | CcB cAG F6 | %13
 B,B^A BGF E6 | [Cc]de c2 C [DG]2 B [DG]GF | [G,G]3 [G,B,DG]3 [G,B,DG]3 z2 z |] %16
V:4
 !6!G,,2 !2!B, !5!A,,2 !2!C !5!B,,2 !2!D !1!E !2!D !2!C | %1
 [!4!D,!2!B,]3 [!5!^D,!4!F,]3 [!4!E,!3!G,]3 !6!G,, !5!A,, !5!B,, | %2
 [!5!C,!4!E,]2 x [!5!C,!4!E,]2 x [!5!C,!4!E,]2 x [!5!C,!4!E,]2 [!5!^C,!4!E,] | %3
 [!4!E,!3!G,] !2!B, !3!^A, !2!B, !3!=A, !3!G, !4!F, !4!E, !4!D, !5!C, !5!B,, !5!A,, | %4
 !6!G,,2 !2!B, !5!A,,2 !2!C !5!B,,2 !2!D [!5!C,!1!E] !2!D !2!C | %5
 [!4!D,!2!B,]3 [!5!^D,!4!F,]3 [!4!E,!3!G,]3 !6!G,, !5!A,, !5!B,, | %6
 [!5!C,!4!E,]2 x [!5!C,!4!E,!3!A,]2 x [!4!D,!3!G,!2!B,]2 x [!4!D,!3!A,] !3!G, !4!F, | %7
 [!6!G,,!3!G,]3 [!6!G,,!5!B,,!4!D,!3!G,]3 [!6!G,,!5!B,,!4!D,!3!G,]3 x2 x | %8
 [!4!E,!3!^G,!2!B,]3 x2 x x !4!E, !4!F, !3!G, !3!A, !2!B, | %9
 [!5!A,,!3!A,]2 x [!6!E,,!3!^G,]2 x !5!A,, !3!A, !3!=G, !4!F, !3!G, !4!E, | %10
 [!5!D,!4!F,!3!A,]2 x x2 x x !4!D, !4!E, !4!F, !3!G, !3!A, | %11
 !3!G,2 x [!5!D,!4!F,]3 !6!E,, !3!G, !3!A, !2!B, !2!C !2!D | %12
 !5!C, !2!C !2!B, !2!C !3!A, !3!G, !4!F,6 | !5!B,, !2!B, !3!^A, !2!B, !3!G, !4!F, !4!E,6 | %14
 [!5!C,!2!C] !2!D !1!E !2!C2 !5!C, [!4!D,!3!G,]2 !2!B, [!4!D,!3!G,] !3!G, !4!F, | %15
 [!6!G,,!3!G,]3 [!6!G,,!5!B,,!4!D,!3!G,]3 [!6!G,,!5!B,,!4!D,!3!G,]3 x2 x |] %16

